X: 94
T: 89. BONAPARTE CROSSING THE ALPS
B: Sam Bayard, "Hill Country Tunes" 1944 #89
N: Played by F.P. Provance (as he formerly played it on the violin), Point Marion, PA, Oct 16, 1943.
N: Learned from the fifers at Dunbar.
P: Mod.; measured.
R: march
M: C
L: 1/8
Z: 2010 John Chambers <jc:trillian.mit.edu>
K: Ador
"a"d2 |\
e2A2 A2gf | e2d2 "b."B<A ((3B^cd) | e2A2 A2B<A | G2A2 B<A ((3B^cd) |
e2A2 A2gf | e2d2 BA ((3B^cd) | e2f2 g2B2 | A6 :: z2 |
e3d e3f | g2a2 g2e2 | d3e d2B2 | d3e d2B2 |
e3d e3f | g2a2 g2e2 | d2e<f g2B2 | A6 |]
P: Var:
"a."f2 || "a."ef || "b."BA |]

%%sep 2 1 500
%%sep 1 1 500

